usr/share/icons/biglinux-icons-material-dark/16/actions/object-order-lower.svg

<svg xmlns="http://www.w3.org/2000/svg" viewBox="0 0 16 16">
  <defs id="defs3051">
    <style type="text/css" id="current-color-scheme">
      .ColorScheme-Text {
        color:#dedede;
      }
      </style>
  </defs>
 <path style="fill:currentColor;fill-opacity:1;stroke:none" 
     d="M 4 2 L 4 6 L 4 8.03125 L 2.65625 6.59375 L 2 7.28125 L 4.3125 9.78125 L 4.5 10 L 4.6875 9.78125 L 7 7.28125 L 6.34375 6.59375 L 5 8.03125 L 5 6 L 5 2 L 4 2 z M 7 3 L 7 4 L 14 4 L 14 3 L 7 3 z M 9 5 L 9 6 L 14 6 L 14 5 L 9 5 z M 8 7 L 8 8 L 14 8 L 14 7 L 8 7 z M 9 9 L 9 10 L 14 10 L 14 9 L 9 9 z M 2 11 L 2 12 L 14 12 L 14 11 L 2 11 z M 8 13 L 8 14 L 14 14 L 14 13 L 8 13 z "
     class="ColorScheme-Text"
     />
</svg>

<svg xmlns="http://www.w3.org/2000/svg" viewBox="0 0 16 16">
<defs id="defs3051">
<style id="current-color-scheme" type="text/css">
.ColorScheme-Text{color:#dedede}
</style>
</defs>
<path d="M4 2v6.031L2.656 6.594 2 7.28l2.313 2.5.187.22.188-.219L7 7.281l-.656-.687L5 8.03V2zm3 1v1h7V3zm2 2v1h5V5zM8 7v1h6V7zm1 2v1h5V9zm-7 2v1h12v-1zm6 2v1h6v-1z" class="ColorScheme-Text" style="fill:currentColor;fill-opacity:1;stroke:none"/>
</svg>
